X:3083
T:Vals efter Hans Pålsson, Vambåsa
M:3/4
L:1/8
Q:180  
K:G
O:Blekinge
R:Vals
D2 |: B3 B B2 | G2 A2 B2 | c3 c c2 | E4 E2 | D2 FF F2 | D2 F2 A2 |1 B3 c BA | G4 D2 :|2G3 G G2 | G4 | 
|: A2 | B3 B B2 | B2 c2 d2 | e3 d cB | A4 A2 | D2 FF F2 | D2 F2 A2 |1 B3 c BA | G4 :|2 G3 G G2 | G4 |
(:musicend:)
(:music:)
